X: 1
T: Skyedance
M: 4/4
L: 1/8
R: reel
K: Cmaj
|: cgge g3a | g2eg gede | cgge g3a |1 gede AGAB :|2 gede a4 ||
|: ~e2dc ~A2GA | ~e2dc ~A2GA | ~e2dc ~A2GA |1 cdcA GAcd :|2 cdcA g4 ||
